common/src/main/resources/icons/plugins/datagrip/expui/partitionTable.svg

<svg xmlns="http://www.w3.org/2000/svg" width="16" height="16" fill="#80CBC4" data-big="true" viewBox="0 0 24 24"><path d="M5 4h14a2 2 0 0 1 2 2v12a2 2 0 0 1-2 2H5a2 2 0 0 1-2-2V6a2 2 0 0 1 2-2m0 4v4h6V8zm8 0v4h6V8zm-8 6v4h6v-4zm8 0v4h6v-4z"/><path fill="#EF5350" d="M17.5 13v10c-2.55-.25-4.5-2.4-4.5-5s1.95-4.75 4.5-5m1 0v4.5H23a5.01 5.01 0 0 0-4.5-4.5m0 5.5V23c2.35-.25 4.25-2.1 4.5-4.5z"/></svg>

<!--
  - The MIT License (MIT)
  -
  - Copyright (c) 2015-2024 Elior "Mallowigi" Boukhobza
  -
  - Permission is hereby granted, free of charge, to any person obtaining a copy
  - of this software and associated documentation files (the "Software"), to deal
  - in the Software without restriction, including without limitation the rights
  - to use, copy, modify, merge, publish, distribute, sublicense, and/or sell
  - copies of the Software, and to permit persons to whom the Software is
  - furnished to do so, subject to the following conditions:
  -
  - The above copyright notice and this permission notice shall be included in all
  - copies or substantial portions of the Software.
  -
  - THE SOFTWARE IS PROVIDED "AS IS", WITHOUT WARRANTY OF ANY KIND, EXPRESS OR
  - IMPLIED, INCLUDING BUT NOT LIMITED TO THE WARRANTIES OF MERCHANTABILITY,
  - FITNESS FOR A PARTICULAR PURPOSE AND NONINFRINGEMENT. IN NO EVENT SHALL THE
  - AUTHORS OR COPYRIGHT HOLDERS BE LIABLE FOR ANY CLAIM, DAMAGES OR OTHER
  - LIABILITY, WHETHER IN AN ACTION OF CONTRACT, TORT OR OTHERWISE, ARISING FROM,
  - OUT OF OR IN CONNECTION WITH THE SOFTWARE OR THE USE OR OTHER DEALINGS IN THE
  - SOFTWARE.
  -->


<svg data-big="true" xmlns="http://www.w3.org/2000/svg" version="1.1" width="16px" height="16px" fill="#80CBC4"
     viewBox="0 0 24 24">
  <path
    d="M5,4H19A2,2 0 0,1 21,6V18A2,2 0 0,1 19,20H5A2,2 0 0,1 3,18V6A2,2 0 0,1 5,4M5,8V12H11V8H5M13,8V12H19V8H13M5,14V18H11V14H5M13,14V18H19V14H13Z"/>
  <path fill="#EF5350" transform="scale(.5) translate(24 24)"
        d="M11,2V22C5.9,21.5 2,17.2 2,12C2,6.8 5.9,2.5 11,2M13,2V11H22C21.5,6.2 17.8,2.5 13,2M13,13V22C17.7,21.5 21.5,17.8 22,13H13Z"/>
</svg>
